!!!!SEGMENT: pl-sa--548-a-ix-28--006_anonim--polonez-no-3.krn
!!!cenid: 18xx:429
!!!COM: Anonim
!!!COM-rismID: pe30004985
!!!CDT:
!!!CNT:
!!!OTL: Polonez No 3
!!!PDT:
!!!AGN: Secular; Polonaise
!!!SMS-siglum: PL-SA
!!!SMS-shelfmark: 548/A IX 28
!!!SMS-shelfwork: 006 W
!!!SMS-variant:
!!!SMS-altvar:
!!!NIFC-rismSourceID: 1001068956
!!!NIFC-rismChildID: 1001068956
!!!NIFC-islandoraID:
!!!URL-pdf-islandora:
!!!URL-scan: https://bc.bdsandomierz.pl/dlibra/publication/1440/edition/1408/content @EN{Scan in the Sandomierz Diocese Digital Library} @PL{Skany w portalu Cyfrowa Biblioteka Diecezjalna w Sandomierzu}
!!!ONB-nifc: Str. 10 (s. 4) – s. 11 (s. 3)
!!!AIN: 2 empty
!!!key:
**kern	**kern
*part2	*part1
*staff2	*staff1
*Iempty	*Iempty
*I"	*I"
*clefF4	*clefG2
*k[f#]	*k[f#]
*G:	*G:
*M3/4	*M3/4
=1	=1
!	!LO:SIC:o:s=:v:caudy niekonsekwentne pozycje (left/right)&colon;global
!	!LO:TX:a:t=Polonez No 3
!	!LO:SIC:o:s=:v:klucze i znaki tylko w 1 systemie Poloneza
8G\L 8B\	16b\LL
.	16dd\J
8D\J	8ddT\J
*rep	*
8G\L 8B\	8.gg\L
8D\J	.
.	16ff#\Jk
*Xrep	*
*rep	*
8G\L 8B\	16ff#\LL
.	16ee\
8D\J	16cc\
.	16b\JJ
*Xrep	*
=2	=2
8A\L 8c\	8.dd\L
8D\J	.
.	16cc#X\Jk
8r	4ccn\
8D\L 8d\	.
8E-X\ 8e-X\	4r
8D\J 8d\	.
=3	=3
*	*Xtuplet
!LO:TX:t=P:problem=mixed beam	!
8DD/L 8D/	16dd\LL
!	!LO:SIC:o:s=:v:brak klamry, brak numeru
.	48ee\L
.	48dd\
.	48cc#X\J
8A\J 8c\ 8f#\	16dd\
.	16ee\JJ
8A\L 8c\ 8d\	16ff#\LL
!	!LO:SIC:o:s=:v:brak klamry, brak numeru
.	48gg\L
.	48ff#X\
.	48ee\J
8A\J 8c\ 8d\	16ff#\
.	16gg\JJ
*rep	*
8A\L 8c\ 8d\	16aa\LL
.	16bb\
8A\J 8c\ 8d\	16ccc\
.	16ff#\JJ
*Xrep	*
=4	=4
8G\L 8B\	8.aa\L
8D\J	.
.	16gg\Jk
4G\ 4B\	16gg\LL
.	16dd\
.	16cc#X\
.	16dd\JJ
4r	16ee\LL
.	16ff#\
.	16gg\
.	16aa\JJ
!!LO:LB:g=original
=5	=5
16G\LL	8bb\L
16d\	.
16B\	16ccc\L
16d\JJ	16aa\JJ
*rep	*
16G\LL	8gg\L
16d\	.
.	8qaa/
16B\	16gg\L
16d\JJ	16ff#\JJ
*Xrep	*
*rep	*
16G\LL	16gg\LL
16d\	16bb\
16B\	16eee\
16d\JJ	16ddd\JJ
*Xrep	*
=6	=6
16A\LL	8ddd\L
16d\	.
16c\	8ccc\J
16d\JJ	.
*rep	*
16A\LL	4aa\
16d\	.
16c\	.
16d\JJ	.
*Xrep	*
*rep	*
16A\LL	16aa\LL
16d\	16ccc\
16c\	16bb\
16d\JJ	16aa\JJ
*Xrep	*
=7	=7
!LO:TX:t=P:problem=mixed beam	!
8DD/L 8D/	16gg\LL
.	16ff#\
8A\J 8c\ 8d\	16aa\
.	16ff#\JJ
*rep	*
!LO:TX:t=P:problem=mixed beam	!
8DD/L 8D/	16dd\LL
.	16ee\
8A\J 8c\ 8d\	16ff#\
.	16gg\JJ
*Xrep	*
*rep	*
!LO:TX:t=P:problem=mixed beam	!
8DD/L 8D/	16aa\LL
.	16bb\
8A\J 8c\ 8d\	16ccc\
.	16aa\JJ
*Xrep	*
=8	=8
8G\L 8B\	8gg\L
8D\J	8bb\J
8D\L 8F#\ 8A\	16ddd\LL
.	16ccc\
8d\J	16aa\
.	16ff#\JJ
4G\ 4B\	4gg\
!!LO:PB:g=original
=||9	=||9
8A\L 8c\	16aa\LL
.	16bb\
8d\J	16aa\
.	16gg\JJ
*rep	*
8A\L 8c\	8gg\L
8d\J	8ddT\
*Xrep	*
*rep	*
8A\L 8c\	8ee\
8d\J	8ff#\J
*Xrep	*
=10	=10
8G\L 8B\	16gg\LL
.	16ff#\
8d\J	16gg\
.	16bb\JJ
*rep	*
8G\L 8B\	4.ddT\
8d\J	.
*Xrep	*
*rep	*
8G\L 8B\	.
8d\J	8gg\
*Xrep	*
=11	=11
8D\L	8ff#\L
8A\J 8c\ 8d\	16ff#\L
.	16ee\JJ
*rep	*
8D\L	16dd\LL
.	16ee\
8A\J 8c\ 8d\	16ff#\
.	16gg\JJ
*Xrep	*
*rep	*
8D\L	8.aa\L
8A\J 8c\ 8d\	.
.	16ff#\Jk
*Xrep	*
=12	=12
4G\ 4B\ 4d\	8.gg\L
.	16b\Jk 16dd\
4r	16cc\LL 16ee\
.	16b\ 16dd\
.	16a\ 16cc\
.	16g\JJ 16b\
8d\L	8g/L 8b/
!LO:TX:a:t=P:problem=mixed beam	!
8D/J	8f#/J 8a/
!	!LO:TX:t=Polonez Da Capo
!!LO:PB:g=original
=13||	=13||
*M3/4	*M3/4
!	!LO:TX:a:t=Trio
8G\L 8B\	16dd\LL
.	16bb\J
8D\J	8ff#\J
*rep	*
8G\L 8B\	4.ggT\
8D\J	.
*Xrep	*
*rep	*
8G\L 8B\	.
8D\J	8dd\
*Xrep	*
=14	=14
*rep	*
8G\L 8B\	16b\LL
.	16dd\
8D\J	16gg\
.	16dd\JJ
*Xrep	*
*rep	*
8G\L 8B\	8.bb\L
8D\J	.
.	16ddd\Jk
*Xrep	*
*rep	*
8G\L 8B\	16ccc\LL
.	16bb\
8D\J	16aa\
.	16gg\JJ
*Xrep	*
=15	=15
8A\L 8c\	16dd\LL
.	16ccc\J
8D\J	8gg#X\J
*rep	*
8A\L 8c\	4aa\
8D\J	.
*Xrep	*
*rep	*
8A\L 8c\	16aa\LL
!	!LO:SIC:s=:v:16ggn
.	16gg#\
8D\J	16ff#\
.	16ee\JJ
*Xrep	*
=16	=16
*rep	*
8A\L 8c\	16dd\LL
.	16ee\
8D\J	16ff#\
.	16gg\JJ
*Xrep	*
*rep	*
8A\L 8c\	16aa\LL
.	16bb\
8D\J	16ccc\
.	16aa\JJ
*Xrep	*
4G\ 4B\	4gg\
!!LO:LB:g=original
=||17	=||17
8F#\L 8A\	16ff#\LL
.	16gg\
8D\J	16gg#X\
.	16aa\JJ
*rep	*
8F#\L 8A\	16ggn\LL
.	16ff#\
8D\J	16ee\
.	16dd\JJ
*Xrep	*
*rep	*
8F#\L 8A\	16cc#X\LL
.	16dd\
8D\J	16ee\
.	16ff#\JJ
*Xrep	*
=18	=18
8G\L 8B\	8gg\L
.	(32qqaa/LLL
.	32qqgg/
.	32qqff#/JJJ)
8D\J	16gg\L
.	16aa\JJ
*rep	*
8G\L 8B\	16bb\LL
.	16ccc\
8D\J	16ccc#X\
.	16ddd\JJ
*Xrep	*
*rep	*
8G\L 8B\	16cccn\LL
.	16bb\
8D\J	16aa\
.	16gg\JJ
*Xrep	*
=19	=19
!LO:TX:t=P:problem=mixed beam	!
8DD/L 8D/	16ff#\LL
.	16gg\
8A\J 8c\ 8d\	16gg#X\
.	16aa\JJ
8A\L 8c\ 8d\	16ggn\LL
.	16ff#\
8A\J 8c\ 8d\	16ee\
.	16dd\JJ
*rep	*
8A\L 8c\ 8d\	16cc#X\LL
.	16dd\
8A\J 8c\ 8d\	16ee\
.	16ff#\JJ
*Xrep	*
=20	=20
8G\L 8B\	8.gg\L
8D\J	.
.	16dd\Jk
8BB/L	16ccn\LL
.	16b\
8GG/J	16a\
.	16g\JJ
8D/L	4d/
8DD/J	.
!	!LO:TX:t=Trio Da Capo
==	==
*-	*-
!!!system-decoration: (s1,s2)
!!!EED: Leszek Kubiak
!!!EEV: 2020-11-23
!!!ENC: Marta Chmielewska
!!!END: 2020-06-15
!!!YEC: Copyright 2022 Narodowy Instytut Fryderyka Chopina (https://polishscores.org)
!!!YEM: License CC-BY-4.0 (https://creativecommons.org/licenses/by/4.0)
